Systematic/src/svg/zip.svg

<svg xmlns="http://www.w3.org/2000/svg" xml:space="preserve" width="312.974" height="266.667"><defs><clipPath id="a" clipPathUnits="userSpaceOnUse"><path d="M0 256h256V0H0Z"/></clipPath><clipPath id="b" clipPathUnits="userSpaceOnUse"><path d="M10.635 228h234.73V28H10.635Z"/></clipPath><clipPath id="c" clipPathUnits="userSpaceOnUse"><path d="M0 256h256V0H0Z"/></clipPath></defs><g clip-path="url(#a)" transform="matrix(1.33333 0 0 -1.33333 -14.18 304)"><g clip-path="url(#b)" style="opacity:.5"><path d="M0 0h-112.992l-2.338-3.84-56-92-2.532-4.16 2.532-4.159 56-92 2.338-3.841H0l2.338 3.841 56 92L60.869-100l-2.531 4.16-56 92z" style="fill:#fff;fill-opacity:1;fill-rule:nonzero;stroke:none" transform="translate(184.496 228)"/></g></g><path d="M0 0h-104l-56-92 56-92H0l56 92z" style="fill:#737373;fill-opacity:1;fill-rule:nonzero;stroke:none" transform="matrix(1.33333 0 0 -1.33333 225.82 10.667)"/><g clip-path="url(#c)" transform="matrix(1.33333 0 0 -1.33333 -14.18 304)"><path d="M0 0h-50.286c-3.472 0-6.285-2.785-6.285-6.222v-99.555c0-3.439 2.813-6.223 6.285-6.223h75.429c3.473 0 6.286 2.784 6.286 6.223v74.666z" style="fill:#e6e6e6;fill-opacity:1;fill-rule:nonzero;stroke:none" transform="translate(140.571 184)"/><path d="m0 0 26.796-26.326v-69.399h-71.823V0Z" style="fill:#595959;fill-opacity:1;fill-rule:nonzero;stroke:none" transform="translate(137.204 175.725)"/><path d="M0 0s29.095-12.633 36.052-48.138c0 0 .764 15.906 17.54 33.202C58.42-9.957 44.688 0 44.688 0Z" style="fill:#00b800;fill-opacity:1;fill-rule:nonzero;stroke:none" transform="translate(92 176)"/><path d="M0 0c-.271.025-.731-.544-.857-.916-.06-.176.418-.6.735-.781.263-.149.691-.024.968-.162.708-.353 1.372-.786 2.187-1.266l.76 2.201c-.356.159-.513.262-.685.301C2.076-.39 1.048-.097 0 0" style="fill:#ccc;fill-opacity:1;fill-rule:nonzero;stroke:none" transform="translate(129.686 139.725)"/><path d="M0 0c-.335.119-.75.446-.965.351-.305-.136-.605-.569-.623-.889-.012-.212.46-.467.741-.67.236-.17.547-.254.759-.442.576-.514 1.117-1.063 1.791-1.712l1.318 2.068c-.677.336-1.254.648-1.854.912C.796-.218.385-.136 0 0" style="fill:#ccc;fill-opacity:1;fill-rule:nonzero;stroke:none" transform="translate(135.067 150.07)"/><path d="M0 0c-.316.069-.815.267-.923.15a2 2 0 0 1-.485-1.115c-.013-.129.51-.314.796-.456.289-.145.611-.239.881-.409.635-.399 1.248-.831 1.985-1.327L3.262-.991c-.738.256-1.358.488-1.991.685C.857-.177.427-.093 0 0" style="fill:#ccc;fill-opacity:1;fill-rule:nonzero;stroke:none" transform="translate(133.072 146.521)"/><path d="M0 0c-.34.081-.835.268-1.008.128-.257-.21-.432-.69-.369-1.007.043-.214.548-.359.861-.505.261-.12.572-.155.812-.3.649-.392 1.272-.822 2.066-1.341l.914 2.398c-.902.122-1.628.202-2.345.326C.612-.245.317-.075 0 0" style="fill:#ccc;fill-opacity:1;fill-rule:nonzero;stroke:none" transform="translate(131.556 143.031)"/><path d="M0 0c.194.259.407.803.288.917-.305.292-.956.679-1.175.557C-1.75.992-2.496.323-3.296-.262c-.22-.16-.48-.271-.84-.469l1.883-1.898c.524.741.925 1.369 1.396 1.947.223.273.648.403.857.682" style="fill:#ccc;fill-opacity:1;fill-rule:nonzero;stroke:none" transform="translate(111.104 163.812)"/><path d="M0 0c-.211-.242-.37-.527-.595-.757-.497-.509-1.022-.994-1.644-1.595l2.234-1.377c.305.84.541 1.558.829 2.256.105.255.36.451.497.698.163.294.467.711.361.9-.161.289-.617.574-.955.581C.49.711.229.263 0 0" style="fill:#ccc;fill-opacity:1;fill-rule:nonzero;stroke:none" transform="translate(97.373 174.282)"/><path d="M0 0c.209.233.575.615.501.748-.192.346-.549.663-.921.84-.126.059-.483-.349-.752-.52C-1.58.81-2.016.589-2.417.321c-.484-.325-.944-.684-1.521-1.106l1.999-1.784c.424.673.795 1.31 1.222 1.913.181.255.502.417.717.656" style="fill:#ccc;fill-opacity:1;fill-rule:nonzero;stroke:none" transform="translate(108.054 166.522)"/><path d="M0 0c.317.18.795.604.735.781-.126.371-.587.941-.857.916-1.047-.097-2.075-.39-3.107-.623-.173-.039-.329-.142-.686-.301l.76-2.202c.816.481 1.48.913 2.187 1.267.277.138.706.013.968.162" style="fill:#ccc;fill-opacity:1;fill-rule:nonzero;stroke:none" transform="translate(125.004 140.385)"/><path d="M0 0c.282.203.753.458.741.67-.017.32-.318.753-.622.889-.215.095-.631-.232-.965-.351-.385-.136-.796-.218-1.167-.381-.6-.265-1.177-.577-1.854-.913l1.318-2.068c.674.65 1.215 1.198 1.791 1.712.212.188.523.273.758.442" style="fill:#ccc;fill-opacity:1;fill-rule:nonzero;stroke:none" transform="translate(118.276 154.327)"/><path d="M0 0c.276.212.789.521.745.662-.115.368-.428.731-.766.958-.116.078-.533-.261-.821-.391-.367-.166-.756-.292-1.114-.473C-2.542.458-3.111.131-3.841-.268l1.508-2.012c.61.683 1.092 1.251 1.611 1.786.197.203.492.317.722.494" style="fill:#ccc;fill-opacity:1;fill-rule:nonzero;stroke:none" transform="translate(116.085 157.534)"/><path d="M0 0c.286.258.854.579.807.749-.098.354-.473.726-.835.885-.162.071-.553-.378-.865-.55-.309-.171-.668-.265-.973-.441C-2.435.315-2.981-.048-3.671-.48l1.619-1.923c.572.716 1.031 1.305 1.508 1.881.158.191.357.353.544.522" style="fill:#ccc;fill-opacity:1;fill-rule:nonzero;stroke:none" transform="translate(113.45 160.649)"/><path d="M0 0c.287.143.808.328.795.456A2 2 0 0 1 .31 1.571c-.107.116-.605-.08-.922-.15-.427-.092-.857-.177-1.272-.306-.633-.197-1.253-.429-1.99-.684l1.008-2.167c.737.497 1.349.928 1.985 1.328.27.17.591.263.881.408" style="fill:#ccc;fill-opacity:1;fill-rule:nonzero;stroke:none" transform="translate(122.109 147.457)"/><path d="M0 0c.287.143.808.328.795.456A2 2 0 0 1 .31 1.571c-.107.117-.605-.08-.922-.149-.427-.093-.857-.178-1.272-.307-.633-.197-1.253-.428-1.99-.684l1.008-2.166c.737.496 1.349.927 1.985 1.327.27.17.591.263.881.408" style="fill:#ccc;fill-opacity:1;fill-rule:nonzero;stroke:none" transform="translate(120.557 150.565)"/><path d="M0 0c.314.146.819.292.862.505.063.316-.112.798-.369 1.007-.173.14-.668-.047-1.009-.128-.317-.075-.611-.245-.93-.301C-2.163.959-2.89.879-3.792.757l.914-2.399c.795.52 1.418.95 2.067 1.342.24.145.551.179.811.3" style="fill:#ccc;fill-opacity:1;fill-rule:nonzero;stroke:none" transform="translate(123.528 144.004)"/><path d="M0 0c.2.279.579.642.506.849-.109.307-.52.65-.855.708-.236.04-.561-.363-.842-.573a42 42 0 0 1-.941-.718c-.512-.406-1.017-.817-1.659-1.333L-1.779-2.7c.434.721.795 1.346 1.185 1.955.17.265.41.488.594.745" style="fill:#ccc;fill-opacity:1;fill-rule:nonzero;stroke:none" transform="translate(104.908 169.125)"/><path d="M0 0c.179.283.507.679.414.873-.142.297-.573.601-.912.635-.222.022-.504-.419-.747-.664-.229-.229-.425-.49-.666-.708-.532-.483-1.083-.948-1.738-1.516.776-.534 1.35-.928 2.188-1.502.356.856.617 1.541.929 2.204.118.251.38.437.532.678" style="fill:#ccc;fill-opacity:1;fill-rule:nonzero;stroke:none" transform="translate(101.841 171.392)"/><path d="M0 0c.091-.646.7-1.704.576-1.906L.773-2.2c.608.271 1.208.556 1.825.807.305.123.646.164.956.278.332.121.853.225.92.44.094.307-.042.812-.284 1.034C4.023.512.663.135 0 0" style="fill:#ccc;fill-opacity:1;fill-rule:nonzero;stroke:none" transform="translate(122.22 137.924)"/><path d="m0 0-7.366 12.616c-.551.944.138 2.124 1.241 2.124h14.73c1.103 0 1.792-1.18 1.241-2.124L2.48 0C1.929-.944.551-.944 0 0" style="fill:#fff;fill-opacity:1;fill-rule:nonzero;stroke:none" transform="translate(126.76 120.708)"/><path d="M0 0h2.327v-.683h-3.491V0l2.362 2.49h-2.362v.689h3.491V2.49Z" style="fill:gray;fill-opacity:1;fill-rule:nonzero;stroke:none" transform="translate(124.275 128.683)"/><path d="M127.444 131.862h.911V128h-.911z" style="fill:gray;fill-opacity:1;fill-rule:nonzero;stroke:none"/><path d="M0 0h-1.008v-1.14h1.06q.316 0 .548.116.23.115.23.448.012.372-.245.471-.256.1-.585.1zm.012.689A.02.02 0 0 1 .026.683H.26q.108 0 .219-.011.195-.01.388-.051T1.228.49a.97.97 0 0 0 .434-.458q.13-.29.136-.608a1.3 1.3 0 0 0-.107-.558 1 1 0 0 0-.372-.448 1.25 1.25 0 0 0-.474-.19 4 4 0 0 0-.522-.057H.047l-1.055.006v-1.35h-.87V.689z" style="fill:gray;fill-opacity:1;fill-rule:nonzero;stroke:none" transform="translate(131.09 131.173)"/><path d="M0 0h-12.813a6.4 6.4 0 0 0-6.4 6.4V32l32-32z" style="fill:#fff;fill-opacity:1;fill-rule:nonzero;stroke:none" transform="translate(155.213 148)"/><path d="M128 118h-4v2h4zm4-2h-4v2h4zm-4-2h-4v2h4zm4-2h-4v2h4zm-4-2h-4v2h4zm4-2h-4v2h4zm-4-2h-4v2h4zm4-2h-4v2h4zm-4-2h-4v2h4zm4-2h-4v2h4zm-4-2h-4v2h4zm4-2h-4v2h4zm-4-2h-4v2h4zm4-2h-4v2h4zm-4-2h-4v2h4zm4-2h-4v2h4zm-4-2h-4v2h4zm4-2h-4v2h4zm-4-2h-4v2h4zm4-2h-4v2h4z" style="fill:#ccc;fill-opacity:1;fill-rule:nonzero;stroke:none"/></g></svg>

<?xml version="1.0" encoding="UTF-8" standalone="no"?>
<svg
   xmlns:dc="http://purl.org/dc/elements/1.1/"
   xmlns:cc="http://creativecommons.org/ns#"
   xmlns:rdf="http://www.w3.org/1999/02/22-rdf-syntax-ns#"
   xmlns:svg="http://www.w3.org/2000/svg"
   xmlns="http://www.w3.org/2000/svg"
   viewBox="0 0 312.974 266.66665"
   height="266.66666"
   width="312.974"
   xml:space="preserve"
   id="svg2"
   version="1.1"><metadata
     id="metadata8"><rdf:RDF><cc:Work
         rdf:about=""><dc:format>image/svg+xml</dc:format><dc:type
           rdf:resource="http://purl.org/dc/dcmitype/StillImage" /></cc:Work></rdf:RDF></metadata><defs
     id="defs6"><clipPath
       id="clipPath18"
       clipPathUnits="userSpaceOnUse"><path
         id="path16"
         d="M 0,256 H 256 V 0 H 0 Z" /></clipPath><clipPath
       id="clipPath26"
       clipPathUnits="userSpaceOnUse"><path
         id="path24"
         d="M 10.6345,228 H 245.365 V 28 H 10.6345 Z" /></clipPath><clipPath
       id="clipPath46"
       clipPathUnits="userSpaceOnUse"><path
         id="path44"
         d="M 0,256 H 256 V 0 H 0 Z" /></clipPath></defs><g
     transform="matrix(1.3333333,0,0,-1.3333333,-14.179333,303.99999)"
     id="g10"><g
       id="g12"><g
         clip-path="url(#clipPath18)"
         id="g14"><g
           id="g20"><g
             id="g22" /><g
             id="g34"><g
               style="opacity:0.5"
               id="g32"
               clip-path="url(#clipPath26)"><g
                 id="g30"
                 transform="translate(184.4961,228)"><path
                   id="path28"
                   style="fill:#ffffff;fill-opacity:1;fill-rule:nonzero;stroke:none"
                   d="m 0,0 h -4.496 -104 -4.496 l -2.338,-3.84 -56,-92 -2.532,-4.16 2.532,-4.159 56,-92 2.338,-3.841 h 4.496 104 H 0 l 2.338,3.841 56,92 2.531,4.159 -2.531,4.16 -56,92 z" /></g></g></g></g></g></g><g
       transform="translate(180,220)"
       id="g36"><path
         id="path38"
         style="fill:#737373;fill-opacity:1;fill-rule:nonzero;stroke:none"
         d="m 0,0 h -104 l -56,-92 56,-92 H 0 l 56,92 z" /></g><g
       id="g40"><g
         clip-path="url(#clipPath46)"
         id="g42"><g
           transform="translate(140.5713,184)"
           id="g48"><path
             id="path50"
             style="fill:#e6e6e6;fill-opacity:1;fill-rule:nonzero;stroke:none"
             d="m 0,0 h -50.286 c -3.472,0 -6.285,-2.785 -6.285,-6.222 v -99.555 c 0,-3.439 2.813,-6.223 6.285,-6.223 h 75.429 c 3.473,0 6.286,2.784 6.286,6.223 v 74.666 z" /></g><g
           transform="translate(137.2041,175.7251)"
           id="g52"><path
             id="path54"
             style="fill:#595959;fill-opacity:1;fill-rule:nonzero;stroke:none"
             d="M 0,0 26.796,-26.326 V -95.725 H -45.027 V 0 Z" /></g><g
           transform="translate(92,176)"
           id="g56"><path
             id="path58"
             style="fill:#00b800;fill-opacity:1;fill-rule:nonzero;stroke:none"
             d="m 0,0 c 0,0 29.095,-12.633 36.052,-48.138 0,0 0.764,15.906 17.54,33.202 C 58.42,-9.957 44.688,0 44.688,0 Z" /></g><g
           transform="translate(129.6865,139.7246)"
           id="g60"><path
             id="path62"
             style="fill:#cccccc;fill-opacity:1;fill-rule:nonzero;stroke:none"
             d="m 0,0 c -0.271,0.025 -0.731,-0.544 -0.857,-0.916 -0.06,-0.176 0.418,-0.6 0.735,-0.781 0.263,-0.149 0.691,-0.024 0.968,-0.162 0.708,-0.353 1.372,-0.786 2.187,-1.266 0.32,0.924 0.528,1.528 0.76,2.201 C 3.437,-0.765 3.28,-0.662 3.108,-0.623 2.076,-0.39 1.048,-0.097 0,0" /></g><g
           transform="translate(135.0674,150.0693)"
           id="g64"><path
             id="path66"
             style="fill:#cccccc;fill-opacity:1;fill-rule:nonzero;stroke:none"
             d="M 0,0 C -0.335,0.119 -0.75,0.446 -0.965,0.351 -1.27,0.215 -1.57,-0.218 -1.588,-0.538 c -0.012,-0.212 0.46,-0.467 0.741,-0.67 0.236,-0.17 0.547,-0.254 0.759,-0.442 0.576,-0.514 1.117,-1.063 1.791,-1.712 0.543,0.852 0.89,1.396 1.318,2.068 C 2.344,-0.958 1.767,-0.646 1.167,-0.382 0.796,-0.218 0.385,-0.136 0,0" /></g><g
           transform="translate(133.0723,146.521)"
           id="g68"><path
             id="path70"
             style="fill:#cccccc;fill-opacity:1;fill-rule:nonzero;stroke:none"
             d="m 0,0 c -0.316,0.069 -0.815,0.267 -0.923,0.15 -0.27,-0.293 -0.446,-0.724 -0.485,-1.115 -0.013,-0.129 0.51,-0.314 0.796,-0.456 0.289,-0.145 0.611,-0.239 0.881,-0.409 0.635,-0.399 1.248,-0.831 1.985,-1.327 0.401,0.863 0.671,1.443 1.008,2.166 C 2.524,-0.735 1.904,-0.503 1.271,-0.306 0.857,-0.177 0.427,-0.093 0,0" /></g><g
           transform="translate(131.5557,143.0312)"
           id="g72"><path
             id="path74"
             style="fill:#cccccc;fill-opacity:1;fill-rule:nonzero;stroke:none"
             d="m 0,0 c -0.34,0.081 -0.835,0.268 -1.008,0.128 -0.257,-0.21 -0.432,-0.69 -0.369,-1.007 0.043,-0.214 0.548,-0.359 0.861,-0.505 0.261,-0.12 0.572,-0.155 0.812,-0.3 0.649,-0.392 1.272,-0.822 2.066,-1.341 0.341,0.894 0.579,1.52 0.914,2.398 C 2.374,-0.505 1.648,-0.425 0.931,-0.301 0.612,-0.245 0.317,-0.075 0,0" /></g><g
           transform="translate(111.104,163.812)"
           id="g76"><path
             id="path78"
             style="fill:#cccccc;fill-opacity:1;fill-rule:nonzero;stroke:none"
             d="M 0,0 C 0.194,0.259 0.407,0.803 0.288,0.917 -0.017,1.209 -0.668,1.596 -0.887,1.474 -1.75,0.992 -2.496,0.323 -3.296,-0.262 c -0.22,-0.16 -0.48,-0.271 -0.84,-0.469 0.702,-0.707 1.186,-1.195 1.883,-1.898 0.524,0.741 0.925,1.369 1.396,1.947 C -0.634,-0.409 -0.209,-0.279 0,0" /></g><g
           transform="translate(97.3726,174.2817)"
           id="g80"><path
             id="path82"
             style="fill:#cccccc;fill-opacity:1;fill-rule:nonzero;stroke:none"
             d="m 0,0 c -0.211,-0.242 -0.37,-0.527 -0.595,-0.757 -0.497,-0.509 -1.022,-0.994 -1.644,-1.595 0.789,-0.486 1.355,-0.836 2.234,-1.377 0.305,0.84 0.541,1.558 0.829,2.256 0.105,0.255 0.36,0.451 0.497,0.698 0.163,0.294 0.467,0.711 0.361,0.9 C 1.521,0.414 1.065,0.699 0.727,0.706 0.49,0.711 0.229,0.263 0,0" /></g><g
           transform="translate(108.0537,166.522)"
           id="g84"><path
             id="path86"
             style="fill:#cccccc;fill-opacity:1;fill-rule:nonzero;stroke:none"
             d="M 0,0 C 0.209,0.233 0.575,0.615 0.501,0.748 0.309,1.094 -0.048,1.411 -0.42,1.588 -0.546,1.647 -0.903,1.239 -1.172,1.068 -1.58,0.81 -2.016,0.589 -2.417,0.321 c -0.484,-0.325 -0.944,-0.684 -1.521,-1.106 0.806,-0.718 1.297,-1.157 1.999,-1.784 0.424,0.673 0.795,1.31 1.222,1.913 C -0.536,-0.401 -0.215,-0.239 0,0" /></g><g
           transform="translate(125.0039,140.3853)"
           id="g88"><path
             id="path90"
             style="fill:#cccccc;fill-opacity:1;fill-rule:nonzero;stroke:none"
             d="M 0,0 C 0.317,0.18 0.795,0.604 0.735,0.781 0.609,1.152 0.148,1.722 -0.122,1.697 -1.169,1.6 -2.197,1.307 -3.229,1.074 -3.402,1.035 -3.558,0.932 -3.915,0.773 c 0.233,-0.673 0.441,-1.278 0.76,-2.202 0.816,0.481 1.48,0.913 2.187,1.267 C -0.691,-0.024 -0.262,-0.149 0,0" /></g><g
           transform="translate(118.2759,154.3271)"
           id="g92"><path
             id="path94"
             style="fill:#cccccc;fill-opacity:1;fill-rule:nonzero;stroke:none"
             d="M 0,0 C 0.282,0.203 0.753,0.458 0.741,0.67 0.724,0.99 0.423,1.423 0.119,1.559 -0.096,1.654 -0.512,1.327 -0.846,1.208 -1.231,1.072 -1.642,0.99 -2.013,0.827 -2.613,0.562 -3.19,0.25 -3.867,-0.086 c 0.429,-0.672 0.775,-1.215 1.318,-2.068 0.674,0.65 1.215,1.198 1.791,1.712 C -0.546,-0.254 -0.235,-0.169 0,0" /></g><g
           transform="translate(116.085,157.5342)"
           id="g96"><path
             id="path98"
             style="fill:#cccccc;fill-opacity:1;fill-rule:nonzero;stroke:none"
             d="M 0,0 C 0.276,0.212 0.789,0.521 0.745,0.662 0.63,1.03 0.317,1.393 -0.021,1.62 -0.137,1.698 -0.554,1.359 -0.842,1.229 -1.209,1.063 -1.598,0.937 -1.956,0.756 -2.542,0.458 -3.111,0.131 -3.841,-0.268 c 0.547,-0.73 0.937,-1.251 1.508,-2.012 0.61,0.683 1.092,1.251 1.611,1.786 C -0.525,-0.291 -0.23,-0.177 0,0" /></g><g
           transform="translate(113.4497,160.6489)"
           id="g100"><path
             id="path102"
             style="fill:#cccccc;fill-opacity:1;fill-rule:nonzero;stroke:none"
             d="M 0,0 C 0.286,0.258 0.854,0.579 0.807,0.749 0.709,1.103 0.334,1.475 -0.028,1.634 -0.19,1.705 -0.581,1.256 -0.893,1.084 -1.202,0.913 -1.561,0.819 -1.866,0.643 -2.435,0.315 -2.981,-0.048 -3.671,-0.48 c 0.539,-0.641 0.979,-1.163 1.619,-1.923 0.572,0.716 1.031,1.305 1.508,1.881 C -0.386,-0.331 -0.187,-0.169 0,0" /></g><g
           transform="translate(122.1089,147.457)"
           id="g104"><path
             id="path106"
             style="fill:#cccccc;fill-opacity:1;fill-rule:nonzero;stroke:none"
             d="M 0,0 C 0.287,0.143 0.808,0.328 0.795,0.456 0.757,0.847 0.581,1.278 0.31,1.571 0.203,1.687 -0.295,1.491 -0.612,1.421 -1.039,1.329 -1.469,1.244 -1.884,1.115 -2.517,0.918 -3.137,0.686 -3.874,0.431 c 0.337,-0.724 0.606,-1.304 1.008,-2.167 0.737,0.497 1.349,0.928 1.985,1.328 C -0.611,-0.238 -0.29,-0.145 0,0" /></g><g
           transform="translate(120.5566,150.5654)"
           id="g108"><path
             id="path110"
             style="fill:#cccccc;fill-opacity:1;fill-rule:nonzero;stroke:none"
             d="M 0,0 C 0.287,0.143 0.808,0.328 0.795,0.456 0.757,0.848 0.581,1.279 0.31,1.571 0.203,1.688 -0.295,1.491 -0.612,1.422 -1.039,1.329 -1.469,1.244 -1.884,1.115 -2.517,0.918 -3.137,0.687 -3.874,0.431 c 0.337,-0.724 0.606,-1.304 1.008,-2.166 0.737,0.496 1.349,0.927 1.985,1.327 C -0.611,-0.238 -0.29,-0.145 0,0" /></g><g
           transform="translate(123.5283,144.0044)"
           id="g112"><path
             id="path114"
             style="fill:#cccccc;fill-opacity:1;fill-rule:nonzero;stroke:none"
             d="M 0,0 C 0.314,0.146 0.819,0.292 0.862,0.505 0.925,0.821 0.75,1.303 0.493,1.512 0.32,1.652 -0.175,1.465 -0.516,1.384 -0.833,1.309 -1.127,1.139 -1.446,1.083 -2.163,0.959 -2.89,0.879 -3.792,0.757 c 0.335,-0.879 0.574,-1.504 0.914,-2.399 0.795,0.52 1.418,0.95 2.067,1.342 0.24,0.145 0.551,0.179 0.811,0.3" /></g><g
           transform="translate(104.9082,169.1245)"
           id="g116"><path
             id="path118"
             style="fill:#cccccc;fill-opacity:1;fill-rule:nonzero;stroke:none"
             d="M 0,0 C 0.2,0.279 0.579,0.642 0.506,0.849 0.397,1.156 -0.014,1.499 -0.349,1.557 -0.585,1.597 -0.91,1.194 -1.191,0.984 -1.508,0.748 -1.823,0.51 -2.132,0.266 -2.644,-0.14 -3.149,-0.551 -3.791,-1.067 c 0.747,-0.606 1.253,-1.017 2.012,-1.633 0.434,0.721 0.795,1.346 1.185,1.955 C -0.424,-0.48 -0.184,-0.257 0,0" /></g><g
           transform="translate(101.8413,171.3921)"
           id="g120"><path
             id="path122"
             style="fill:#cccccc;fill-opacity:1;fill-rule:nonzero;stroke:none"
             d="M 0,0 C 0.179,0.283 0.507,0.679 0.414,0.873 0.272,1.17 -0.159,1.474 -0.498,1.508 -0.72,1.53 -1.002,1.089 -1.245,0.844 -1.474,0.615 -1.67,0.354 -1.911,0.136 -2.443,-0.347 -2.994,-0.812 -3.649,-1.38 c 0.776,-0.534 1.35,-0.928 2.188,-1.502 0.356,0.856 0.617,1.541 0.929,2.204 C -0.414,-0.427 -0.152,-0.241 0,0" /></g><g
           transform="translate(122.2197,137.9238)"
           id="g124"><path
             id="path126"
             style="fill:#cccccc;fill-opacity:1;fill-rule:nonzero;stroke:none"
             d="m 0,0 c 0.091,-0.646 0.7,-1.704 0.576,-1.906 0.066,-0.098 0.132,-0.196 0.197,-0.294 0.608,0.271 1.208,0.556 1.825,0.807 0.305,0.123 0.646,0.164 0.956,0.278 0.332,0.121 0.853,0.225 0.92,0.44 C 4.568,-0.368 4.432,0.137 4.19,0.359 4.023,0.512 0.663,0.135 0,0" /></g><g
           transform="translate(126.7598,120.708)"
           id="g128"><path
             id="path130"
             style="fill:#ffffff;fill-opacity:1;fill-rule:nonzero;stroke:none"
             d="m 0,0 -7.366,12.616 c -0.551,0.944 0.138,2.124 1.241,2.124 h 14.73 c 1.103,0 1.792,-1.18 1.241,-2.124 L 2.48,0 C 1.929,-0.944 0.551,-0.944 0,0" /></g><g
           transform="translate(124.2754,128.6831)"
           id="g132"><path
             id="path134"
             style="fill:#808080;fill-opacity:1;fill-rule:nonzero;stroke:none"
             d="M 0,0 H 2.327 V -0.683 H -1.164 V 0 L 1.198,2.49 H -1.164 V 3.179 H 2.327 V 2.49 Z" /></g><path
           id="path136"
           style="fill:#808080;fill-opacity:1;fill-rule:nonzero;stroke:none"
           d="m 127.444,131.862 h 0.911 V 128 h -0.911 z" /><g
           transform="translate(131.0908,131.1733)"
           id="g138"><path
             id="path140"
             style="fill:#808080;fill-opacity:1;fill-rule:nonzero;stroke:none"
             d="m 0,0 h -1.008 v -1.14 h 1.06 c 0.211,0 0.393,0.038 0.548,0.116 0.153,0.077 0.23,0.226 0.23,0.448 0.008,0.248 -0.074,0.405 -0.245,0.471 -0.171,0.066 -0.365,0.1 -0.585,0.1 z M 0.012,0.689 C 0.016,0.685 0.021,0.683 0.026,0.683 H 0.041 0.26 C 0.332,0.683 0.405,0.679 0.479,0.672 0.609,0.665 0.738,0.648 0.867,0.621 0.996,0.594 1.116,0.55 1.228,0.49 1.431,0.378 1.576,0.226 1.662,0.032 1.749,-0.161 1.794,-0.364 1.798,-0.576 1.802,-0.77 1.767,-0.956 1.691,-1.134 1.616,-1.314 1.492,-1.462 1.319,-1.582 1.174,-1.678 1.015,-1.742 0.845,-1.772 0.673,-1.803 0.5,-1.821 0.323,-1.829 H 0.185 0.047 l -1.055,0.006 v -1.35 h -0.87 v 3.862 z" /></g><g
           transform="translate(155.2129,148)"
           id="g142"><path
             id="path144"
             style="fill:#ffffff;fill-opacity:1;fill-rule:nonzero;stroke:none"
             d="m 0,0 h -12.813 c -3.536,0 -6.4,2.864 -6.4,6.4 V 19.2 32 l 32,-32 z" /></g><path
           id="path146"
           style="fill:#cccccc;fill-opacity:1;fill-rule:nonzero;stroke:none"
           d="m 128,118 h -4 v 2 h 4 z" /><path
           id="path148"
           style="fill:#cccccc;fill-opacity:1;fill-rule:nonzero;stroke:none"
           d="m 132,116 h -4 v 2 h 4 z" /><path
           id="path150"
           style="fill:#cccccc;fill-opacity:1;fill-rule:nonzero;stroke:none"
           d="m 128,114 h -4 v 2 h 4 z" /><path
           id="path152"
           style="fill:#cccccc;fill-opacity:1;fill-rule:nonzero;stroke:none"
           d="m 132,112 h -4 v 2 h 4 z" /><path
           id="path154"
           style="fill:#cccccc;fill-opacity:1;fill-rule:nonzero;stroke:none"
           d="m 128,110 h -4 v 2 h 4 z" /><path
           id="path156"
           style="fill:#cccccc;fill-opacity:1;fill-rule:nonzero;stroke:none"
           d="m 132,108 h -4 v 2 h 4 z" /><path
           id="path158"
           style="fill:#cccccc;fill-opacity:1;fill-rule:nonzero;stroke:none"
           d="m 128,106 h -4 v 2 h 4 z" /><path
           id="path160"
           style="fill:#cccccc;fill-opacity:1;fill-rule:nonzero;stroke:none"
           d="m 132,104 h -4 v 2 h 4 z" /><path
           id="path162"
           style="fill:#cccccc;fill-opacity:1;fill-rule:nonzero;stroke:none"
           d="m 128,102 h -4 v 2 h 4 z" /><path
           id="path164"
           style="fill:#cccccc;fill-opacity:1;fill-rule:nonzero;stroke:none"
           d="m 132,100 h -4 v 2 h 4 z" /><path
           id="path166"
           style="fill:#cccccc;fill-opacity:1;fill-rule:nonzero;stroke:none"
           d="m 128,98 h -4 v 2 h 4 z" /><path
           id="path168"
           style="fill:#cccccc;fill-opacity:1;fill-rule:nonzero;stroke:none"
           d="m 132,96 h -4 v 2 h 4 z" /><path
           id="path170"
           style="fill:#cccccc;fill-opacity:1;fill-rule:nonzero;stroke:none"
           d="m 128,94 h -4 v 2 h 4 z" /><path
           id="path172"
           style="fill:#cccccc;fill-opacity:1;fill-rule:nonzero;stroke:none"
           d="m 132,92 h -4 v 2 h 4 z" /><path
           id="path174"
           style="fill:#cccccc;fill-opacity:1;fill-rule:nonzero;stroke:none"
           d="m 128,90 h -4 v 2 h 4 z" /><path
           id="path176"
           style="fill:#cccccc;fill-opacity:1;fill-rule:nonzero;stroke:none"
           d="m 132,88 h -4 v 2 h 4 z" /><path
           id="path178"
           style="fill:#cccccc;fill-opacity:1;fill-rule:nonzero;stroke:none"
           d="m 128,86 h -4 v 2 h 4 z" /><path
           id="path180"
           style="fill:#cccccc;fill-opacity:1;fill-rule:nonzero;stroke:none"
           d="m 132,84 h -4 v 2 h 4 z" /><path
           id="path182"
           style="fill:#cccccc;fill-opacity:1;fill-rule:nonzero;stroke:none"
           d="m 128,82 h -4 v 2 h 4 z" /><path
           id="path184"
           style="fill:#cccccc;fill-opacity:1;fill-rule:nonzero;stroke:none"
           d="m 132,80 h -4 v 2 h 4 z" /></g></g></g></svg>
